X: 13
T: dem Trisker Rebn's Khosid
C: Dave Tarras
O: arr. Shana Aisenberg
R: khusidl
S: Fiddle Hell Online 2020-11-09 handout for Klezmer Jam led by Shana Aisenberg
Z: 2020 John Chambers <jc:trillian.mit.edu>
M: 2/4
L: 1/16
K: Dphr	% actually D freygish (and G minor)
%%continueall
"^A"|: zB,2 |\
"Em"E2BA G2G2 | GAGF E4 | EB,GE BGeB | Bedc B4 ||\
"G"BAdc B2AG | "Am"A_BAB A3G | "Em"GFFG "Dm"G=FFE | "Em"E4 z :|
"^B"|: GFE |\
"G"D2GA B2AG | B2AG B2AG | dccB dccB | dccB B2AG ||\
zDEF GABc | de=fe dcBA | "Em"GFFG "Dm"G=FFE | "Em"E4 z :|
"^C"|: DEF |\
"Em"G4- GFG^G | "Dm"A2=F2 "Em"E4 | "Em"G4- GFG^G | "Dm"A2=F2 "Em"E3e ||\
"G"=fedc BAGF | GdBd "Am"A3G | "Em"GFFG "Dm"G=FFE | "Em"E4 :|


